app/dist/common/images/trustpilot-plc.svg

<svg fill="none" height="18" viewBox="0 0 18 18" width="18" xmlns="http://www.w3.org/2000/svg"><path d="m0 0h18v18h-18z" fill="#04da8d"/><path clip-rule="evenodd" d="m3 7h4.66667l1.33333-4 1.3333 4h4.6667l-6.01361 4.4219-3.98639 2.5781 1.66667-4.20588zm8.3333 4 1.6667 3-4.01361-2.5781z" fill="#2b2b2a" fill-rule="evenodd"/></svg>

<!-- by TradingView --><svg width="18" height="18" viewBox="0 0 18 18" fill="none" xmlns="http://www.w3.org/2000/svg">
<rect width="18" height="18" fill="#04DA8D"/>
<path fill-rule="evenodd" clip-rule="evenodd" d="M3 7H7.66667L9 3L10.3333 7H15L8.98639 11.4219L5 14L6.66667 9.79412L3 7ZM11.3333 11L13 14L8.98639 11.4219L11.3333 11Z" fill="#2B2B2A"/>
</svg>
